!!!OTL: SEHT IHR DREI ROSSE
!!!ARE: Europa, Mitteleuropa, Deutschland; Rossiya
!!!SCT: B0723
!!!YEM: Copyright 1995, estate of Helmut Schaffrath.
**kern
*ICvox
*Ivox
*M3/4
*k[b-e-a-]
*E-:
{8b-
8b-
8b-
=1
4.b-
8a-
8a-
8a-
=2
4a-
8g}
{8g
8g
8g
=3
4.g
8f
8c
8d
=4
4e-
8r}
{8e-
8g
8b-
=5
4.ee-
8dd
8cc
8bn
=6
4dd
8cc}
{8f
8g
8an
=7
4.cc
8b-
8f
8g
=8
4e-
8r}
{8e-
8g
8b-
=9
4.ee-
8dd
8cc
8bn
=10
4dd
8cc}
{8f
8g
8an
=11
4.cc
8b-
8f
8g
=12
4e-
8r}
==
!!!AGN: Abschieds - Lied, Klage
!!!ONB: ESAC (Essen Associative Code) Database: BOEHME
!!!AMT: simple triple
!!!AIN: vox
!!!EED: Helmut Schaffrath
!!!EEV: 1.0
*-
